src/icons/brand.svg

<svg xmlns="http://www.w3.org/2000/svg" width="128" height="64" fill="none" viewBox="0 0 129 64"><path fill="url(#a)" fill-rule="evenodd" d="M.6291 47.3482c-1.377-2.3275-.4184-5.2294 2.141-6.4816L26.175 29.4157 21.6878 5.5935c-.3333-1.7696.4506-3.56 2.0301-4.6369 1.5796-1.077 3.6891-1.2593 5.4635-.4722L61.0446 14.617c1.7743.787 2.9151 2.411 2.9543 4.206.0393 1.795-1.0295 3.459-2.768 4.3095l-23.4048 11.451 4.4871 23.8223c.4906 2.605-1.4338 5.0785-4.2983 5.5247-2.8646.4463-5.5845-1.3038-6.0752-3.9088l-3.8904-20.6548-20.2929 9.9284c-2.5593 1.2522-5.7503.3804-7.1273-1.9471m35.3226-22.7158 11.2525-5.5054-13.4097-5.9478z" clip-rule="evenodd"/><path fill="url(#b)" d="M111.576 21.616h8.32c2.027 0 3.627.1387 4.8.416 1.195.2773 2.059.768 2.592 1.472.555.6827.832 1.6427.832 2.88v3.936c0 1.3653-.298 2.432-.896 3.2-.576.768-1.504 1.312-2.784 1.632-1.258.32-2.965.48-5.12.48h-2.752v6.752h-4.992zm8.16 10.592c1.302 0 2.219-.1493 2.752-.448.534-.32.8-.8533.8-1.6v-3.328c0-.6827-.256-1.1307-.768-1.344-.49-.2133-1.44-.32-2.848-.32h-3.104v7.04z"/><path fill="url(#c)" d="M95.648 31.792 88.32 21.616h5.76l4.448 6.912 4.416-6.912h5.76l-7.328 10.176 7.68 10.592h-5.792l-4.736-7.36-4.768 7.36H88z"/><defs><linearGradient id="b" x1="-23.5183" x2="-23.5183" y1="-28.4499" y2="85.5716" gradientUnits="userSpaceOnUse"><stop stop-color="#8A609F"/><stop offset=".6875" stop-color="#9F6060"/><stop offset="1" stop-color="#804D4D"/></linearGradient><linearGradient id="c" x1="108.539" x2="108.539" y1="12.384" y2="49.384" gradientUnits="userSpaceOnUse"><stop stop-color="#8A609F"/><stop offset=".6875" stop-color="#9F6060"/><stop offset="1" stop-color="#804D4D"/></linearGradient><radialGradient id="a" cx="0" cy="0" r="1" gradientTransform="rotate(69.34 23.4404 41.2844)scale(58.1689 109.396)" gradientUnits="userSpaceOnUse"><stop stop-color="#8A609F"/><stop offset=".6615" stop-color="#9F6060"/><stop offset="1" stop-color="#804D4D"/></radialGradient></defs></svg>

<svg width="128" height="64" viewBox="0 0 129 64" fill="none" xmlns="http://www.w3.org/2000/svg">
<path fill-rule="evenodd" clip-rule="evenodd" d="M0.629113 47.3482C-0.747822 45.0207 0.21074 42.1188 2.77012 40.8666L26.1749 29.4157L21.6878 5.5935C21.3545 3.82394 22.1384 2.03359 23.7179 0.956637C25.2975 -0.120315 27.407 -0.30267 29.1814 0.484352L61.0446 14.6171C62.8189 15.4041 63.9597 17.0281 63.9989 18.8231C64.0382 20.6181 62.9694 22.2821 61.2309 23.1326L37.8261 34.5835L42.3132 58.4058C42.8038 61.0108 40.8794 63.4843 38.0149 63.9305C35.1503 64.3768 32.4304 62.6267 31.9397 60.0217L28.0493 39.3669L7.75644 49.2953C5.19706 50.5475 2.00605 49.6757 0.629113 47.3482ZM35.9517 24.6324L47.2042 19.127L33.7945 13.1792L35.9517 24.6324Z" fill="url(#paint0_radial_36_205)"/>
<path d="M111.576 21.616H119.896C121.923 21.616 123.523 21.7547 124.696 22.032C125.891 22.3093 126.755 22.8 127.288 23.504C127.843 24.1867 128.12 25.1467 128.12 26.384V30.32C128.12 31.6853 127.822 32.752 127.224 33.52C126.648 34.288 125.72 34.832 124.44 35.152C123.182 35.472 121.475 35.632 119.32 35.632H116.568V42.384H111.576V21.616ZM119.736 32.208C121.038 32.208 121.955 32.0587 122.488 31.76C123.022 31.44 123.288 30.9067 123.288 30.16V26.832C123.288 26.1493 123.032 25.7013 122.52 25.488C122.03 25.2747 121.08 25.168 119.672 25.168H116.568V32.208H119.736Z" fill="url(#paint1_linear_36_205)"/>
<path d="M95.648 31.792L88.32 21.616H94.08L98.528 28.528L102.944 21.616H108.704L101.376 31.792L109.056 42.384H103.264L98.528 35.024L93.76 42.384H88L95.648 31.792Z" fill="url(#paint2_linear_36_205)"/>
<defs>
<radialGradient id="paint0_radial_36_205" cx="0" cy="0" r="1" gradientUnits="userSpaceOnUse" gradientTransform="translate(53.7997 4.78555) rotate(69.3402) scale(58.1689 109.396)">
<stop stop-color="#8A609F"/>
<stop offset="0.661458" stop-color="#9F6060"/>
<stop offset="1" stop-color="#804D4D"/>
</radialGradient>
<linearGradient id="paint1_linear_36_205" x1="-23.5183" y1="-28.4499" x2="-23.5183" y2="85.5716" gradientUnits="userSpaceOnUse">
<stop stop-color="#8A609F"/>
<stop offset="0.6875" stop-color="#9F6060"/>
<stop offset="1" stop-color="#804D4D"/>
</linearGradient>
<linearGradient id="paint2_linear_36_205" x1="108.539" y1="12.384" x2="108.539" y2="49.384" gradientUnits="userSpaceOnUse">
<stop stop-color="#8A609F"/>
<stop offset="0.6875" stop-color="#9F6060"/>
<stop offset="1" stop-color="#804D4D"/>
</linearGradient>
</defs>
</svg>
